public/cloud-icons/azure/office-365/o365-api-dropbox.svg

<svg xmlns="http://www.w3.org/2000/svg" xml:space="preserve" width="75.59" height="75.59" style="font-size:12px;overflow:visible;color-interpolation-filters:sRGB;fill-rule:evenodd;stroke-linecap:square;stroke-miterlimit:3" viewBox="0 0 56.693 56.693"><g transform="translate(-5.67 -5.67)"><title>Page-1</title><g transform="translate(5.67 -34.016)"><title>O365 - API Dropbox.22367</title><title>Page-1</title><title>Power Automate API: Dropbox</title><title>rect5928</title><title>Sheet.22371</title><path d="M0 39.685h56.693v56.693H0z" style="fill:#007ee5;stroke:none;stroke-width:.75"/><g transform="translate(7.615 -31.793)"><title>polygon5930</title><title>Sheet.22373</title><path d="m21.16 88.64-8.71-7.25L0 89.49l8.58 6.89Z" style="fill:#fff;stroke:none;stroke-width:.75"/></g><g transform="translate(7.615 -16.804)"><title>polygon5932</title><title>Sheet.22375</title><path d="M8.58 81.39 0 88.28l12.45 8.1 8.71-7.25z" style="fill:#fff;stroke:none;stroke-width:.75"/></g><g transform="translate(28.77 -16.804)"><title>polygon5934</title><title>Sheet.22377</title><path d="M12.58 81.39 0 89.13l8.7 7.25 12.46-8.1z" style="fill:#fff;stroke:none;stroke-width:.75"/></g><g transform="translate(28.77 -31.793)"><title>polygon5936</title><title>Sheet.22379</title><path d="m12.58 96.38 8.58-6.89-12.46-8.1L0 88.64Z" style="fill:#fff;stroke:none;stroke-width:.75"/></g><g transform="translate(16.319 -7.496)"><title>polygon5938</title><title>Sheet.22381</title><path d="m0 88.89 12.45 7.49 12.45-7.49v-2.66l-3.62 2.41-8.83-7.25-8.7 7.25L0 86.23Z" style="fill:#fff;stroke:none;stroke-width:.75"/></g></g></g></svg>

<?xml version="1.0" encoding="UTF-8" standalone="no"?>
<!-- Generated by Microsoft Visio, SVG Export O365 - API Dropbox.svg Page-1 -->

<svg
   xmlns:dc="http://purl.org/dc/elements/1.1/"
   xmlns:cc="http://creativecommons.org/ns#"
   xmlns:rdf="http://www.w3.org/1999/02/22-rdf-syntax-ns#"
   xmlns:svg="http://www.w3.org/2000/svg"
   xmlns="http://www.w3.org/2000/svg"
   xmlns:sodipodi="http://sodipodi.sourceforge.net/DTD/sodipodi-0.dtd"
   xmlns:inkscape="http://www.inkscape.org/namespaces/inkscape"
   width="0.78739941in"
   height="0.78739941in"
   viewBox="0 0 56.692756 56.692898"
   xml:space="preserve"
   class="st3"
   version="1.1"
   id="svg65"
   sodipodi:docname="O365 - API Dropbox.svg"
   style="font-size:12px;overflow:visible;color-interpolation-filters:sRGB;fill:none;fill-rule:evenodd;stroke-linecap:square;stroke-miterlimit:3"
   inkscape:version="0.92.5 (2060ec1f9f, 2020-04-08)"><metadata
   id="metadata71"><rdf:RDF><cc:Work
       rdf:about=""><dc:format>image/svg+xml</dc:format><dc:type
         rdf:resource="http://purl.org/dc/dcmitype/StillImage" /></cc:Work></rdf:RDF></metadata><defs
   id="defs69" /><sodipodi:namedview
   pagecolor="#ffffff"
   bordercolor="#666666"
   borderopacity="1"
   objecttolerance="10"
   gridtolerance="10"
   guidetolerance="10"
   inkscape:pageopacity="0"
   inkscape:pageshadow="2"
   inkscape:window-width="640"
   inkscape:window-height="480"
   id="namedview67"
   showgrid="false"
   inkscape:zoom="1.8365233"
   inkscape:cx="37.795184"
   inkscape:cy="18.897555"
   inkscape:window-x="0"
   inkscape:window-y="0"
   inkscape:window-maximized="0"
   inkscape:current-layer="svg65" />
	<style
   type="text/css"
   id="style2">
	<![CDATA[
		.st1 {fill:#007ee5;stroke:none;stroke-width:0.75}
		.st2 {fill:#ffffff;stroke:none;stroke-width:0.75}
		.st3 {fill:none;fill-rule:evenodd;font-size:12px;overflow:visible;stroke-linecap:square;stroke-miterlimit:3}
	]]>
	</style>

	<g
   id="g63"
   transform="translate(-5.6693772,-5.6693014)">
		<title
   id="title4">Page-1</title>
		<g
   id="group22367-1"
   transform="translate(5.66929,-34.0157)">
			<title
   id="title6">O365 - API Dropbox.22367</title>
			<g
   id="group22368-2">
				<title
   id="title8">Page-1</title>
				<g
   id="group22369-3">
					<title
   id="title10">Power Automate API: Dropbox</title>
					<g
   id="group22370-4">
						<title
   id="title12">rect5928</title>
						<g
   id="shape22371-5">
							<title
   id="title14">Sheet.22371</title>
							<rect
   x="0"
   y="39.685001"
   width="56.692902"
   height="56.692902"
   class="st1"
   id="rect16"
   style="fill:#007ee5;stroke:none;stroke-width:0.75" />
						</g>
					</g>
					<g
   id="group22372-7"
   transform="translate(7.6155,-31.7932)">
						<title
   id="title20">polygon5930</title>
						<g
   id="shape22373-8">
							<title
   id="title22">Sheet.22373</title>
							<path
   d="M 21.16,88.64 12.45,81.39 0,89.49 8.58,96.38 Z"
   class="st2"
   id="path24"
   inkscape:connector-curvature="0"
   style="fill:#ffffff;stroke:none;stroke-width:0.75" />
						</g>
					</g>
					<g
   id="group22374-10"
   transform="translate(7.6155,-16.804)">
						<title
   id="title28">polygon5932</title>
						<g
   id="shape22375-11">
							<title
   id="title30">Sheet.22375</title>
							<path
   d="M 8.58,81.39 0,88.28 l 12.45,8.1 8.71,-7.25 z"
   class="st2"
   id="path32"
   inkscape:connector-curvature="0"
   style="fill:#ffffff;stroke:none;stroke-width:0.75" />
						</g>
					</g>
					<g
   id="group22376-13"
   transform="translate(28.7696,-16.804)">
						<title
   id="title36">polygon5934</title>
						<g
   id="shape22377-14">
							<title
   id="title38">Sheet.22377</title>
							<path
   d="M 12.58,81.39 0,89.13 l 8.7,7.25 12.46,-8.1 z"
   class="st2"
   id="path40"
   inkscape:connector-curvature="0"
   style="fill:#ffffff;stroke:none;stroke-width:0.75" />
						</g>
					</g>
					<g
   id="group22378-16"
   transform="translate(28.7696,-31.7932)">
						<title
   id="title44">polygon5936</title>
						<g
   id="shape22379-17">
							<title
   id="title46">Sheet.22379</title>
							<path
   d="M 12.58,96.38 21.16,89.49 8.7,81.39 0,88.64 Z"
   class="st2"
   id="path48"
   inkscape:connector-curvature="0"
   style="fill:#ffffff;stroke:none;stroke-width:0.75" />
						</g>
					</g>
					<g
   id="group22380-19"
   transform="translate(16.3189,-7.49613)">
						<title
   id="title52">polygon5938</title>
						<g
   id="shape22381-20">
							<title
   id="title54">Sheet.22381</title>
							<path
   d="M 0,88.89 12.45,96.38 24.9,88.89 V 86.23 L 21.28,88.64 12.45,81.39 3.75,88.64 0,86.23 Z"
   class="st2"
   id="path56"
   inkscape:connector-curvature="0"
   style="fill:#ffffff;stroke:none;stroke-width:0.75" />
						</g>
					</g>
				</g>
			</g>
		</g>
	</g>
</svg>
